packages/kaspersky-hexa-ui-icons/src/iconsSVGs/24/DropBoxColor.svg

<svg width="24" height="24" viewBox="0 0 24 24" fill="none" xmlns="http://www.w3.org/2000/svg">
<path d="M15.9416 2.80298L22.5109 6.74452L18.5693 9.37222L12.0001 5.43067L15.9416 2.80298Z" fill="#087BB5"/>
<path d="M5.43081 9.37222L12.0001 5.43067L8.05851 2.80298L1.48926 6.74452L5.43081 9.37222Z" fill="#087BB5"/>
<path d="M12.0001 13.3138L8.05851 15.9415L1.48926 11.9999L5.43081 9.37222L12.0001 13.3138Z" fill="#087BB5"/>
<path d="M12.0001 13.3138L15.9416 15.9415L22.5109 11.9999L18.5693 9.37222L12.0001 13.3138Z" fill="#087BB5"/>
<path d="M8.09598 17.4959L5.43081 15.8968V17.2553L12.0001 21.1968L18.5693 17.2553V15.8972L15.9048 17.4959L12.0004 14.893L8.09598 17.4959Z" fill="#087BB5"/>
</svg>

<svg xmlns="http://www.w3.org/2000/svg" width="24" height="24" fill="none" viewBox="0 0 24 24"><path fill="#087bb5" d="m15.9416 2.803 6.5693 3.9415-3.9416 2.6277-6.5692-3.9415z"/><path fill="#087bb5" d="M5.431 9.372 12 5.431 8.059 2.803l-6.57 3.942zM12 13.314l-3.942 2.628L1.489 12l3.942-2.628zm0 0 3.942 2.628L22.511 12l-3.942-2.628z"/><path fill="#087bb5" d="m8.096 17.4959-2.6652-1.5991v1.3585l6.5693 3.9415 6.5692-3.9415v-1.3581l-2.6645 1.5987-3.9044-2.6029z"/></svg>
